docs/figs/junction/doc.2.svg

<svg class="typst-doc" viewBox="0 0 595.2755905511812 841.8897637795276" width="595.2755905511812pt" height="841.8897637795276pt" xmlns="http://www.w3.org/2000/svg" xmlns:xlink="http://www.w3.org/1999/xlink" xmlns:h5="http://www.w3.org/1999/xhtml">
    <path class="typst-shape" fill="#ffffff" fill-rule="nonzero" d="M 0 0v 841.8898 h 595.2756 v -841.8898 Z "/>
    <g>
        <g class="typst-group" transform="matrix(1 0 0 1 184.251968503937 70.86614173228347)">
            <g>
                <path class="typst-shape" fill="#c0f0c6" fill-rule="nonzero" d="M 0 0m 0 5.6692915 c 0 -3.1310632 2.5382283 -5.6692915 5.6692915 -5.6692915 h 215.43306 c 3.131073 0 5.6692963 2.5382283 5.6692963 5.6692915 v 102.04725 c 0 3.1310577 -2.5382233 5.6692886 -5.6692963 5.6692886 h -215.43306 c -3.1310632 0 -5.6692915 -2.538231 -5.6692915 -5.6692886 Z "/>
                <g class="typst-text" transform="matrix(1 0 0 -1 106.16121739665354 65.81010088582677)">
                    <use xlink:href="#gE31739A2AAD0F2124B565A76E28C49CC" x="0" y="0" fill="#000000" fill-rule="nonzero"/>
                </g>
            </g>
        </g>
        <g class="typst-group" transform="matrix(1 0 0 1 179.251968503937 65.86614173228347)">
            <g>
                <path class="typst-shape" fill="url(#p2CB0945C32E42AF419F6A0728ED3DF9E)" fill-rule="nonzero" stroke="#ff4136" stroke-width="1" stroke-linecap="butt" stroke-linejoin="miter" stroke-miterlimit="4" d="M 0 0v 123.385826 h 236.77165 v -123.385826 Z "/>
            </g>
        </g>
        <g class="typst-group" transform="matrix(1 0 0 1 70.86614173228347 350.0787401574803)">
            <g>
                <path class="typst-shape" fill="#ffc6c3" fill-rule="nonzero" d="M 0 0m 0 5.6692915 c 0 -3.1310632 2.5382283 -5.6692915 5.6692915 -5.6692915 h 130.39369 c 3.131073 0 5.6692963 2.5382283 5.6692963 5.6692915 v 130.39369 c 0 3.131073 -2.5382233 5.6692963 -5.6692963 5.6692963 h -130.39369 c -3.1310632 0 -5.6692915 -2.5382233 -5.6692915 -5.6692963 Z "/>
                <g class="typst-text" transform="matrix(1 0 0 -1 63.64153235728347 79.98332923228347)">
                    <use xlink:href="#g7F9C96DBAD39DE0790A245E75A36CE14" x="0" y="0" fill="#000000" fill-rule="nonzero"/>
                </g>
            </g>
        </g>
        <g class="typst-group" transform="matrix(1 0 0 1 65.86614173228347 345.0787401574803)">
            <g>
                <path class="typst-shape" fill="url(#p2CB0945C32E42AF419F6A0728ED3DF9E)" fill-rule="nonzero" stroke="#ff4136" stroke-width="1" stroke-linecap="butt" stroke-linejoin="miter" stroke-miterlimit="4" d="M 0 0v 151.73228 h 151.73228 v -151.73228 Z "/>
            </g>
        </g>
        <g class="typst-group" transform="matrix(1 0 0 1 70.86614173228347 70.86614173228347)">
            <g>
                <path class="typst-shape" fill="url(#pDF078EC4E273137237597002BEABBB2C)" fill-rule="nonzero" stroke="#2ecc40" stroke-width="1" stroke-linecap="butt" stroke-linejoin="miter" stroke-miterlimit="4" d="M 0 0v 118.385826 h 108.385826 v -118.385826 Z "/>
            </g>
        </g>
        <g class="typst-group" transform="matrix(1 0 0 1 70.86614173228347 189.251968503937)">
            <g>
                <path class="typst-shape" fill="url(#pDF078EC4E273137237597002BEABBB2C)" fill-rule="nonzero" stroke="#2ecc40" stroke-width="1" stroke-linecap="butt" stroke-linejoin="miter" stroke-miterlimit="4" d="M 0 0v 155.82677 h 217.70079 v -155.82677 Z "/>
            </g>
        </g>
        <g class="typst-group" transform="matrix(1 0 0 1 217.5984251968504 345.0787401574803)">
            <g>
                <path class="typst-shape" fill="url(#pDF078EC4E273137237597002BEABBB2C)" fill-rule="nonzero" stroke="#2ecc40" stroke-width="1" stroke-linecap="butt" stroke-linejoin="miter" stroke-miterlimit="4" d="M 0 0v 75.86614 h 70.968506 v -75.86614 Z "/>
            </g>
        </g>
        <g class="typst-group" transform="matrix(1 0 0 1 416.0236220472441 70.86614173228347)">
            <g>
                <path class="typst-shape" fill="url(#pDF078EC4E273137237597002BEABBB2C)" fill-rule="nonzero" stroke="#2ecc40" stroke-width="1" stroke-linecap="butt" stroke-linejoin="miter" stroke-miterlimit="4" d="M 0 0v 118.385826 h 108.385826 v -118.385826 Z "/>
            </g>
        </g>
        <g class="typst-group" transform="matrix(1 0 0 1 306.70866141732284 189.251968503937)">
            <g>
                <path class="typst-shape" fill="url(#pDF078EC4E273137237597002BEABBB2C)" fill-rule="nonzero" stroke="#2ecc40" stroke-width="1" stroke-linecap="butt" stroke-linejoin="miter" stroke-miterlimit="4" d="M 0 0v 231.69292 h 217.70079 v -231.69292 Z "/>
            </g>
        </g>
        <g class="typst-group">
            <g>
                <g class="typst-group" transform="matrix(1 0 0 1 65.86614173228347 345.0787401574803)">
                    <g>
                        <path class="typst-shape" fill="url(#p2CB0945C32E42AF419F6A0728ED3DF9E)" fill-rule="nonzero" stroke="#ff4136" stroke-width="1" stroke-linecap="butt" stroke-linejoin="miter" stroke-miterlimit="4" d="M 0 0v 151.73228 h 151.73228 v -151.73228 Z "/>
                    </g>
                </g>
                <g class="typst-group" transform="matrix(1 0 0 1 217.5984251968504 455.9527559055119)">
                    <g>
                        <path class="typst-shape" fill="url(#pDF078EC4E273137237597002BEABBB2C)" fill-rule="nonzero" stroke="#2ecc40" stroke-width="1" stroke-linecap="butt" stroke-linejoin="miter" stroke-miterlimit="4" d="M 0 0v 40.85827 h 306.81104 v -40.85827 Z "/>
                    </g>
                </g>
                <g class="typst-group" transform="matrix(1 0 0 1 70.86614173228347 496.81102362204723)">
                    <g>
                        <path class="typst-shape" fill="url(#pDF078EC4E273137237597002BEABBB2C)" fill-rule="nonzero" stroke="#2ecc40" stroke-width="1" stroke-linecap="butt" stroke-linejoin="miter" stroke-miterlimit="4" d="M 0 0v 274.2126 h 453.5433 v -274.2126 Z "/>
                    </g>
                </g>
            </g>
        </g>
    </g>
    <defs id="glyph">
        <symbol id="gE31739A2AAD0F2124B565A76E28C49CC" overflow="visible">
            <path d="M 0 0m 9.09375 9.363281 q 1.7226563 -0.45703125 2.6367188 -1.6230469 q 0.9140625 -1.1660156 0.9140625 -2.9121094 q 0 -2.4140625 -1.6230469 -3.7910156 q -1.6230469 -1.3769531 -4.4941406 -1.3769531 q -1.2070313 0 -2.4609375 0.22265625 q -1.2539063 0.22265625 -2.4609375 0.64453125 v 2.3554688 q 1.1953125 -0.62109375 2.3554688 -0.92578125 q 1.1601563 -0.3046875 2.3085938 -0.3046875 q 1.9453125 0 2.9882813 0.87890625 q 1.0429688 0.87890625 1.0429688 2.53125 q 0 1.5234375 -1.0429688 2.4199219 q -1.0429688 0.8964844 -2.8242188 0.8964844 h -1.8046875 v 1.9453125 h 1.8046875 q 1.6289063 0 2.5429688 0.71484375 q 0.9140625 0.71484375 0.9140625 1.9921875 q 0 1.3476563 -0.8496094 2.0683594 q -0.8496094 0.7207031 -2.4199219 0.7207031 q -1.0429688 0 -2.15625 -0.234375 q -1.1132813 -0.234375 -2.3320313 -0.703125 v 2.1796875 q 1.4179688 0.375 2.5253906 0.5625 q 1.1074219 0.1875 1.9628906 0.1875 q 2.5546875 0 4.0839844 -1.2832031 q 1.5292969 -1.2832031 1.5292969 -3.4042969 q 0 -1.4414063 -0.8027344 -2.4023438 q -0.8027344 -0.9609375 -2.3378906 -1.359375 Z "/>
        </symbol>
        <symbol id="g7F9C96DBAD39DE0790A245E75A36CE14" overflow="visible">
            <path d="M 0 0m 8.613281 15.339844 l -5.5195313 -9.246094 h 5.5195313 v 9.246094 Z m -0.38671875 2.15625 h 2.7421875 v -11.402344 h 2.3320313 v -1.921875 h -2.3320313 v -4.171875 h -2.3554688 v 4.171875 h -7.4179688 v 2.2382813 l 7.03125 11.0859375 Z "/>
        </symbol>
    </defs>
    <defs id="tilings">
        <pattern id="t9F83376A2611421707EE7454E4C83DC4" width="30" height="30" patternUnits="userSpaceOnUse" viewBox="0 0 30.000 30.000">
            <g>
                <g class="typst-group">
                    <g>
                        <path class="typst-shape" fill="#ff41360d" fill-rule="nonzero" d="M 0 0v 30 h 30 v -30 Z "/>
                    </g>
                </g>
                <path class="typst-shape" fill="none" stroke="#ff4136" stroke-width="0.1" stroke-linecap="butt" stroke-linejoin="miter" stroke-miterlimit="4" transform="matrix(1 0 0 1 7.5 7.5)" d="M 0 0l 15 15 "/>
                <path class="typst-shape" fill="none" stroke="#ff4136" stroke-width="0.1" stroke-linecap="butt" stroke-linejoin="miter" stroke-miterlimit="4" transform="matrix(1 0 0 1 7.5 22.5)" d="M 0 0l 15 -15 "/>
            </g>
        </pattern>
        <pattern id="t3A564B1B28519AA40A2F922E33ADCCE1" width="30" height="30" patternUnits="userSpaceOnUse" viewBox="0 0 30.000 30.000">
            <g>
                <g class="typst-group">
                    <g>
                        <path class="typst-shape" fill="#2ecc400d" fill-rule="nonzero" d="M 0 0v 30 h 30 v -30 Z "/>
                    </g>
                </g>
                <path class="typst-shape" fill="none" stroke="#2ecc40" stroke-width="0.1" stroke-linecap="butt" stroke-linejoin="miter" stroke-miterlimit="4" transform="matrix(1 0 0 1 7.5 15)" d="M 0 0h 15 "/>
                <path class="typst-shape" fill="none" stroke="#2ecc40" stroke-width="0.1" stroke-linecap="butt" stroke-linejoin="miter" stroke-miterlimit="4" transform="matrix(1 0 0 1 15 7.5)" d="M 0 0v 15 "/>
            </g>
        </pattern>
    </defs>
    <defs id="tilings-refs">
        <pattern patternTransform="matrix(1 0 0 1 0 0)" id="p2CB0945C32E42AF419F6A0728ED3DF9E" href="#t9F83376A2611421707EE7454E4C83DC4" xlink:href="#t9F83376A2611421707EE7454E4C83DC4"/>
        <pattern patternTransform="matrix(1 0 0 1 0 0)" id="pDF078EC4E273137237597002BEABBB2C" href="#t3A564B1B28519AA40A2F922E33ADCCE1" xlink:href="#t3A564B1B28519AA40A2F922E33ADCCE1"/>
    </defs>
</svg>

<svg class="typst-doc" viewBox="0 0 595.2755905511812 841.8897637795276" width="595.2755905511812pt" height="841.8897637795276pt" xmlns="http://www.w3.org/2000/svg" xmlns:xlink="http://www.w3.org/1999/xlink" xmlns:h5="http://www.w3.org/1999/xhtml">
    <path class="typst-shape" fill="#ffffff" fill-rule="nonzero" d="M 0 0 L 0 841.8898 L 595.2756 841.8898 L 595.2756 0 Z "/>
    <g>
        <g transform="translate(184.251968503937 70.86614173228347)">
            <g class="typst-group">
                <g>
                    <g transform="translate(-0 -0)">
                        <path class="typst-shape" fill="#c0f0c6" fill-rule="nonzero" d="M 0 5.6692915 C 0 2.5382283 2.5382283 0 5.6692915 0 L 221.10236 0 C 224.23343 0 226.77165 2.5382283 226.77165 5.6692915 L 226.77165 107.71654 C 226.77165 110.847595 224.23343 113.385826 221.10236 113.385826 L 5.6692915 113.385826 C 2.5382283 113.385826 0 110.847595 0 107.71654 Z "/>
                    </g>
                    <g transform="translate(106.16121739665354 65.81010088582677)">
                        <g class="typst-text" transform="scale(1, -1)">
                            <use xlink:href="#g6CA677F4B246D83AD0CBFC3A61C9DD83" x="0" fill="#000000" fill-rule="nonzero"/>
                        </g>
                    </g>
                </g>
            </g>
        </g>
        <g transform="translate(179.251968503937 65.86614173228347)">
            <g class="typst-group">
                <g>
                    <g transform="translate(-0 -0)">
                        <path class="typst-shape" fill="url(#p66BC1ACEBEA5C6998C7490CA09760A00)" fill-rule="nonzero" stroke="#ff4136" stroke-width="1" stroke-linecap="butt" stroke-linejoin="miter" stroke-miterlimit="4" d="M 0 0 L 0 123.385826 L 236.77165 123.385826 L 236.77165 0 Z "/>
                    </g>
                </g>
            </g>
        </g>
        <g transform="translate(70.86614173228347 350.0787401574803)">
            <g class="typst-group">
                <g>
                    <g transform="translate(-0 -0)">
                        <path class="typst-shape" fill="#ffc6c3" fill-rule="nonzero" d="M 0 5.6692915 C 0 2.5382283 2.5382283 0 5.6692915 0 L 136.06299 0 C 139.19406 0 141.73228 2.5382283 141.73228 5.6692915 L 141.73228 136.06299 C 141.73228 139.19406 139.19406 141.73228 136.06299 141.73228 L 5.6692915 141.73228 C 2.5382283 141.73228 0 139.19406 0 136.06299 Z "/>
                    </g>
                    <g transform="translate(63.64153235728347 79.98332923228347)">
                        <g class="typst-text" transform="scale(1, -1)">
                            <use xlink:href="#g780FAF131F72E43C798CF721EFA3FBF6" x="0" fill="#000000" fill-rule="nonzero"/>
                        </g>
                    </g>
                </g>
            </g>
        </g>
        <g transform="translate(65.86614173228347 345.0787401574803)">
            <g class="typst-group">
                <g>
                    <g transform="translate(-0 -0)">
                        <path class="typst-shape" fill="url(#p66BC1ACEBEA5C6998C7490CA09760A00)" fill-rule="nonzero" stroke="#ff4136" stroke-width="1" stroke-linecap="butt" stroke-linejoin="miter" stroke-miterlimit="4" d="M 0 0 L 0 151.73228 L 151.73228 151.73228 L 151.73228 0 Z "/>
                    </g>
                </g>
            </g>
        </g>
        <g transform="translate(70.86614173228347 70.86614173228347)">
            <g class="typst-group">
                <g>
                    <g transform="translate(-0 -0)">
                        <path class="typst-shape" fill="url(#p55E11A1058E5598A3D909D528C8D726B)" fill-rule="nonzero" stroke="#2ecc40" stroke-width="1" stroke-linecap="butt" stroke-linejoin="miter" stroke-miterlimit="4" d="M 0 0 L 0 118.385826 L 108.385826 118.385826 L 108.385826 0 Z "/>
                    </g>
                </g>
            </g>
        </g>
        <g transform="translate(70.86614173228347 189.251968503937)">
            <g class="typst-group">
                <g>
                    <g transform="translate(-0 -0)">
                        <path class="typst-shape" fill="url(#p55E11A1058E5598A3D909D528C8D726B)" fill-rule="nonzero" stroke="#2ecc40" stroke-width="1" stroke-linecap="butt" stroke-linejoin="miter" stroke-miterlimit="4" d="M 0 0 L 0 155.82677 L 217.70079 155.82677 L 217.70079 0 Z "/>
                    </g>
                </g>
            </g>
        </g>
        <g transform="translate(217.5984251968504 345.0787401574803)">
            <g class="typst-group">
                <g>
                    <g transform="translate(-0 -0)">
                        <path class="typst-shape" fill="url(#p55E11A1058E5598A3D909D528C8D726B)" fill-rule="nonzero" stroke="#2ecc40" stroke-width="1" stroke-linecap="butt" stroke-linejoin="miter" stroke-miterlimit="4" d="M 0 0 L 0 75.86614 L 70.968506 75.86614 L 70.968506 0 Z "/>
                    </g>
                </g>
            </g>
        </g>
        <g transform="translate(416.0236220472441 70.86614173228347)">
            <g class="typst-group">
                <g>
                    <g transform="translate(-0 -0)">
                        <path class="typst-shape" fill="url(#p55E11A1058E5598A3D909D528C8D726B)" fill-rule="nonzero" stroke="#2ecc40" stroke-width="1" stroke-linecap="butt" stroke-linejoin="miter" stroke-miterlimit="4" d="M 0 0 L 0 118.385826 L 108.385826 118.385826 L 108.385826 0 Z "/>
                    </g>
                </g>
            </g>
        </g>
        <g transform="translate(306.70866141732284 189.251968503937)">
            <g class="typst-group">
                <g>
                    <g transform="translate(-0 -0)">
                        <path class="typst-shape" fill="url(#p55E11A1058E5598A3D909D528C8D726B)" fill-rule="nonzero" stroke="#2ecc40" stroke-width="1" stroke-linecap="butt" stroke-linejoin="miter" stroke-miterlimit="4" d="M 0 0 L 0 231.69292 L 217.70079 231.69292 L 217.70079 0 Z "/>
                    </g>
                </g>
            </g>
        </g>
        <g transform="translate(70.86614173228347 70.86614173228347)">
            <g class="typst-group">
                <g>
                    <g transform="translate(-5 274.21259842519686)">
                        <g class="typst-group">
                            <g>
                                <g transform="translate(-0 -0)">
                                    <path class="typst-shape" fill="url(#p66BC1ACEBEA5C6998C7490CA09760A00)" fill-rule="nonzero" stroke="#ff4136" stroke-width="1" stroke-linecap="butt" stroke-linejoin="miter" stroke-miterlimit="4" d="M 0 0 L 0 151.73228 L 151.73228 151.73228 L 151.73228 0 Z "/>
                                </g>
                            </g>
                        </g>
                    </g>
                    <g transform="translate(146.73228346456693 385.0866141732284)">
                        <g class="typst-group">
                            <g>
                                <g transform="translate(-0 -0)">
                                    <path class="typst-shape" fill="url(#p55E11A1058E5598A3D909D528C8D726B)" fill-rule="nonzero" stroke="#2ecc40" stroke-width="1" stroke-linecap="butt" stroke-linejoin="miter" stroke-miterlimit="4" d="M 0 0 L 0 40.85827 L 306.81104 40.85827 L 306.81104 0 Z "/>
                                </g>
                            </g>
                        </g>
                    </g>
                    <g transform="translate(0 425.9448818897638)">
                        <g class="typst-group">
                            <g>
                                <g transform="translate(-0 -0)">
                                    <path class="typst-shape" fill="url(#p55E11A1058E5598A3D909D528C8D726B)" fill-rule="nonzero" stroke="#2ecc40" stroke-width="1" stroke-linecap="butt" stroke-linejoin="miter" stroke-miterlimit="4" d="M 0 0 L 0 274.2126 L 453.5433 274.2126 L 453.5433 0 Z "/>
                                </g>
                            </g>
                        </g>
                    </g>
                </g>
            </g>
        </g>
    </g>
    <defs id="glyph">
        <symbol id="g6CA677F4B246D83AD0CBFC3A61C9DD83" overflow="visible">
            <path d="M 9.09375 9.363281 Q 10.816406 8.90625 11.730469 7.7402344 Q 12.644531 6.5742188 12.644531 4.828125 Q 12.644531 2.4140625 11.021484 1.0371094 Q 9.3984375 -0.33984375 6.5273438 -0.33984375 Q 5.3203125 -0.33984375 4.0664063 -0.1171875 Q 2.8125 0.10546875 1.6054688 0.52734375 L 1.6054688 2.8828125 Q 2.8007813 2.2617188 3.9609375 1.9570313 Q 5.1210938 1.6523438 6.2695313 1.6523438 Q 8.214844 1.6523438 9.2578125 2.53125 Q 10.300781 3.4101563 10.300781 5.0625 Q 10.300781 6.5859375 9.2578125 7.482422 Q 8.214844 8.378906 6.4335938 8.378906 L 4.6289063 8.378906 L 4.6289063 10.324219 L 6.4335938 10.324219 Q 8.0625 10.324219 8.9765625 11.0390625 Q 9.890625 11.753906 9.890625 13.03125 Q 9.890625 14.378906 9.041016 15.099609 Q 8.191406 15.8203125 6.6210938 15.8203125 Q 5.578125 15.8203125 4.4648438 15.5859375 Q 3.3515625 15.3515625 2.1328125 14.8828125 L 2.1328125 17.0625 Q 3.5507813 17.4375 4.658203 17.625 Q 5.765625 17.8125 6.6210938 17.8125 Q 9.175781 17.8125 10.705078 16.529297 Q 12.234375 15.246094 12.234375 13.125 Q 12.234375 11.683594 11.431641 10.722656 Q 10.628906 9.761719 9.09375 9.363281 Z "/>
        </symbol>
        <symbol id="g780FAF131F72E43C798CF721EFA3FBF6" overflow="visible">
            <path d="M 8.613281 15.339844 L 3.09375 6.09375 L 8.613281 6.09375 L 8.613281 15.339844 Z M 8.2265625 17.496094 L 10.96875 17.496094 L 10.96875 6.09375 L 13.300781 6.09375 L 13.300781 4.171875 L 10.96875 4.171875 L 10.96875 0 L 8.613281 0 L 8.613281 4.171875 L 1.1953125 4.171875 L 1.1953125 6.4101563 L 8.2265625 17.496094 Z "/>
        </symbol>
    </defs>
    <defs id="tilings">
        <pattern id="t2F67AF8BD27593D2058F42E652AA4BE7" width="30" height="30" patternUnits="userSpaceOnUse" viewBox="0 0 30.000 30.000">
            <g>
                <g transform="translate(0 0)">
                    <g class="typst-group">
                        <g>
                            <g transform="translate(-0 -0)">
                                <path class="typst-shape" fill="#ff41360d" fill-rule="nonzero" d="M 0 0 L 0 30 L 30 30 L 30 0 Z "/>
                            </g>
                        </g>
                    </g>
                </g>
                <g transform="translate(7.5 7.5)">
                    <path class="typst-shape" fill="none" stroke="#ff4136" stroke-width="0.1" stroke-linecap="butt" stroke-linejoin="miter" stroke-miterlimit="4" d="M 0 0 L 15 15 "/>
                </g>
                <g transform="translate(7.5 22.5)">
                    <path class="typst-shape" fill="none" stroke="#ff4136" stroke-width="0.1" stroke-linecap="butt" stroke-linejoin="miter" stroke-miterlimit="4" d="M 0 0 L 15 -15 "/>
                </g>
            </g>
        </pattern>
        <pattern id="tD06D5C9FDDE18B7ECBF28FBB1815F39E" width="30" height="30" patternUnits="userSpaceOnUse" viewBox="0 0 30.000 30.000">
            <g>
                <g transform="translate(0 0)">
                    <g class="typst-group">
                        <g>
                            <g transform="translate(-0 -0)">
                                <path class="typst-shape" fill="#2ecc400d" fill-rule="nonzero" d="M 0 0 L 0 30 L 30 30 L 30 0 Z "/>
                            </g>
                        </g>
                    </g>
                </g>
                <g transform="translate(7.5 15)">
                    <path class="typst-shape" fill="none" stroke="#2ecc40" stroke-width="0.1" stroke-linecap="butt" stroke-linejoin="miter" stroke-miterlimit="4" d="M 0 0 L 15 0 "/>
                </g>
                <g transform="translate(15 7.5)">
                    <path class="typst-shape" fill="none" stroke="#2ecc40" stroke-width="0.1" stroke-linecap="butt" stroke-linejoin="miter" stroke-miterlimit="4" d="M 0 0 L 0 15 "/>
                </g>
            </g>
        </pattern>
    </defs>
    <defs id="tilings-refs">
        <pattern patternTransform="matrix(1 0 0 1 0 0)" id="p66BC1ACEBEA5C6998C7490CA09760A00" href="#t2F67AF8BD27593D2058F42E652AA4BE7" xlink:href="#t2F67AF8BD27593D2058F42E652AA4BE7"/>
        <pattern patternTransform="matrix(1 0 0 1 0 0)" id="p55E11A1058E5598A3D909D528C8D726B" href="#tD06D5C9FDDE18B7ECBF28FBB1815F39E" xlink:href="#tD06D5C9FDDE18B7ECBF28FBB1815F39E"/>
    </defs>
</svg>
